X:1
T:Emmanuel
T:Emmanuel
T:Bob McGe, 1976
C:1976, Bob McGee
Z:All Rights Reserved
L:1/8
Q:1/4=120
M:4/4
K:C
V:1 treble nm="Voice"
%%MIDI program 54
V:1
 z2"C" G2 c3"Em7" B |"F" A4-"F/E" A4- |"Dm7" A2 F2"G" B3"G9" A |"C" G4-"Gm9/Bb" G4- | %4
w: Em man u|el _|_ Em man u|el _|
"A7" G2"A" E2 A3"A7/C#" G |"Dm" F4-"Dm/C" F4- |"G7/B" F2 D2"G" G3"G7/B" F |"C" E8- | %8
w: _ His name is|called _|_ Em man u|el|
 E4"C/E" c3"Em7" B |"F" A4-"A7/E" A4- |"Dm" A2 F2"G" B3"G9" A |"C" G4-"Gm6/Bb" G4- | %12
w: _ God with|us _|_ re vealed in|us _|
"A7" G2 E2 A3"A7/C#" G |"Dm" F4-"Dm/C" F4- |"G7/B" F2"G" D2"F/G" C3"G7" B, |"C" C8 | %16
w: _ His name is|called _|_ Em man u|el.|
 z2"C" G2 c3"Em7" B |"F" A4-"F/E" A4- |"Dm7" A2 F2"G" B3"G9" A |"C" G4-"Gm9/Bb" G4- | %20
w: Em man u|el _|_ Em man u|el _|
"A7" G2"A" E2 A3"A7/C#" G |"Dm" F4-"Dm/C" F4- |"G7/B" F2 D2"G" G3"G7/B" F |"C" E8- | %24
w: _ His name is|called _|_ Em man u|el|
 E4"C/E" c3"Em7" B |"F" A4-"A7/E" A4- |"Dm" A2 F2"G" B3"G9" A |"C" G4-"Gm6/Bb" G4- | %28
w: _ God with|us _|_ re vealed in|us _|
"A7" G2 E2 A3"A7/C#" G |"Dm" F4-"Dm/C" F4- |"G7/B" F2"G" D2"F/G" C3"G7" B, |"C" C8 |] %32
w: _ His name is|called _|_ Em man u|el.|

